!!!COM:	Josquin des Pres?
**kern	**kern
*part2	*part1
*staff2	*staff1
*clefF4	*clefGv2
*k[b-]	*k[b-]
*M2/1	*M2/1
=1-	=1-
1G	0r
1c	.
=2	=2
1B-	0r
1G	.
=3	=3
2r	1d
1G	.
.	1g
4F	.
4E	.
=4	=4
2.D	1f
4E	.
2F	1d
2G	.
=5	=5
2A	2c
1B-	1d
4A	4c
4G	4B-
=6	=6
2.F	2.A
4G	4B-
2A	2c
2B-	2d
=7	=7
2c	2e
1d	2.f
.	4g
4c	[2a
4B-	.
=8	=8
2A	4a]
.	4g
2B-	2f
2c	2e
[2d	2d
=9	=9
2d]	1e
2c	.
1d	2r
.	[2d
=10	=10
1G	2d]
.	2B-
1A	2c
.	[2A
=11	=11
1F	2A]
.	2.d
1B-	.
.	4e
.	[2f
=12	=12
1A	4f]
.	4e
.	2c
1G	2B-
.	[2d
=13	=13
1F	4d]
.	4c
.	2A
[1B-	2G
.	[2d
=14	=14
2B-]	4d]
.	4e
2A	2.f
1B-	.
.	4d
.	[2g
=15	=15
1c	4g]
.	4e
.	2.a
2A	.
.	4g
[2d	4f
.	4e
=16	=16
4d]	2f
4c	.
4B-	1d
4A	.
1G	.
.	[2g
=17	=17
1A	2g]
.	2f
1G	1g
==	==
*-	*-
